assets/svg/Pickup.svg

<svg width="24" height="24" viewBox="0 0 24 24" fill="none" xmlns="http://www.w3.org/2000/svg">
<path d="M4 8H10V10H4V8Z" fill="#081B31"/>
<path d="M2 12H8V14H2V12Z" fill="#081B31"/>
<path fill-rule="evenodd" clip-rule="evenodd" d="M14 6H7V4H16V9H19L22 13V18H20C20 18.8333 19.7083 19.5417 19.125 20.125C18.5417 20.7083 17.8333 21 17 21C16.1667 21 15.4583 20.7083 14.875 20.125C14.2917 19.5417 14 18.8333 14 18H4V16H14V6ZM17.712 18.712C17.5207 18.904 17.2833 19 17 19C16.7167 19 16.4793 18.904 16.288 18.712C16.096 18.5207 16 18.2833 16 18C16 17.7167 16.096 17.4793 16.288 17.288C16.4793 17.096 16.7167 17 17 17C17.2833 17 17.5207 17.096 17.712 17.288C17.904 17.4793 18 17.7167 18 18C18 18.2833 17.904 18.5207 17.712 18.712ZM20.25 14H16V11H18L20.25 14Z" fill="#081B31"/>
</svg>

<svg width="24" height="24" fill="none" xmlns="http://www.w3.org/2000/svg">
    <path d="M4 8h6v2H4V8ZM2 12h6v2H2v-2Z" fill="#081B31"/>
    <path fill-rule="evenodd" clip-rule="evenodd" d="M14 6H7V4h9v5h3l3 4v5h-2c0 .833-.292 1.542-.875 2.125A2.893 2.893 0 0 1 17 21a2.893 2.893 0 0 1-2.125-.875A2.893 2.893 0 0 1 14 18H4v-2h10V6Zm3.712 12.712A.965.965 0 0 1 17 19a.965.965 0 0 1-.712-.288A.965.965 0 0 1 16 18c0-.283.096-.52.288-.712A.965.965 0 0 1 17 17c.283 0 .52.096.712.288A.965.965 0 0 1 18 18c0 .283-.096.52-.288.712ZM20.25 14H16v-3h2l2.25 3Z" fill="#081B31"/>
</svg>
